icons/GoogleSlidesColor.svg

<svg width="16" height="16" viewBox="0 0 16 16" fill="none" xmlns="http://www.w3.org/2000/svg">
<path d="M4.19995 5.59998H12V12H4.19995V5.59998Z" fill="white"/>
<path d="M9.6001 4.79999L12.4001 6.03999L13.2001 4.39999L9.6001 0.799988L8.6001 2.47999L9.6001 4.79999Z" fill="#F29900"/>
<path d="M9.60005 4.39999V0.799988H4.00005C3.32005 0.799988 2.80005 1.31999 2.80005 1.99999V14C2.80005 14.68 3.32005 15.2 4.00005 15.2H12C12.68 15.2 13.2 14.68 13.2 14V4.39999H9.60005ZM11.2 6.39999V10.8H4.80005V6.39999H11.2Z" fill="#FBBC04"/>
<path d="M5.6001 7.20001H10.4001V10H5.6001V7.20001Z" fill="#FBBC04"/>
</svg>

<svg width="16" height="16" fill="none" xmlns="http://www.w3.org/2000/svg"><path d="M4.2 5.6H12V12H4.2V5.6z" fill="#fff"/><path d="m9.6 4.8 2.8 1.24.8-1.64L9.6.8l-1 1.68 1 2.32z" fill="#F29900"/><path d="M9.6 4.4V.8H4c-.68 0-1.2.52-1.2 1.2v12c0 .68.52 1.2 1.2 1.2h8c.68 0 1.2-.52 1.2-1.2V4.4H9.6zm1.6 2v4.4H4.8V6.4h6.4z" fill="#FBBC04"/><path d="M5.6 7.2h4.8V10H5.6V7.2z" fill="#FBBC04"/></svg>
